public/img/lk-icon-big.svg

<svg width="62" height="62" viewBox="0 0 62 62" fill="none" xmlns="http://www.w3.org/2000/svg">
<rect width="62" height="62" rx="12" fill="#F5F5F5"/>
<path d="M46.0754 16.1115L45.5256 16.6595L42.3963 19.7854C45.279 22.7725 46.7057 26.4465 46.7057 30.833C46.7057 35.2452 45.2242 38.9739 42.2319 41.9611C39.2396 44.9756 35.5605 46.4829 31.1398 46.4829C26.719 46.4829 23.0125 44.9756 20.0477 41.9611C17.0554 38.9465 15.5738 35.2469 15.5738 30.833C15.5738 26.3917 17.0554 22.6355 20.0477 19.621L20.0751 19.5936C18.8401 18.3878 17.6052 17.182 16.3686 15.947L16.3412 15.9744C12.3058 20.0321 10.2744 24.9666 10.2744 30.8039C10.2744 36.588 12.2784 41.5226 16.3412 45.6076C20.3782 49.6635 25.3197 51.7206 31.1672 51.7206C37.0147 51.7206 41.9561 49.6909 46.0206 45.6059C50.0834 41.55 52.1148 36.6154 52.1148 30.8039C52.06 25.0489 50.056 20.1417 46.0754 16.1115Z" fill="#F49C55"/>
<path d="M31.1394 52.0221C25.2371 52.0221 20.1843 49.9376 16.1216 45.8269C12.0588 41.7161 10 36.6702 10 30.833C10 24.9392 12.0588 19.895 16.1216 15.8117L16.3408 15.6182L16.5343 15.7826C17.7693 16.9901 19.0042 18.2233 20.2392 19.4292L20.4327 19.621L20.2117 19.8402C17.3017 22.7999 15.8201 26.5013 15.8201 30.8604C15.8201 35.1904 17.3017 38.8643 20.2117 41.7966C23.1235 44.7307 26.8009 46.2379 31.112 46.2379C35.4505 46.2379 39.1005 44.7581 42.0106 41.7966C44.9224 38.8643 46.4039 35.163 46.4039 30.8604C46.4039 26.5835 44.9771 22.937 42.1493 20.0047L41.9558 19.8128L46.0477 15.7278L46.2395 15.9196C50.2748 19.9772 52.3062 25.0214 52.3062 30.833C52.3062 36.6702 50.22 41.7144 46.1573 45.8269C42.0671 49.9376 37.0143 52.0221 31.1394 52.0221ZM16.3408 16.3581C12.4699 20.3061 10.5207 25.1859 10.5207 30.8313C10.5207 36.5349 12.5247 41.4404 16.507 45.4415C20.4601 49.4443 25.4015 51.474 31.1394 51.474C36.8773 51.474 41.8187 49.4443 45.7993 45.4432C49.7816 41.4404 51.8129 36.5332 51.8129 30.833C51.8129 25.2407 49.8912 20.4157 46.1025 16.4968L42.807 19.7854C45.6075 22.7725 47.0085 26.4996 47.0085 30.833C47.0085 35.3 45.4704 39.111 42.4508 42.1546C39.4311 45.1966 35.6424 46.7586 31.1668 46.7586C26.6913 46.7586 22.8751 45.224 19.8829 42.1529C16.8632 39.111 15.3251 35.3017 15.3251 30.8313C15.3251 26.4191 16.8084 22.6355 19.691 19.621C18.5542 18.5542 17.4373 17.4664 16.3408 16.3581Z" fill="#F49C55"/>
<path d="M33.1711 10.2195H29.1357V25.3504H33.1711V10.2195Z" fill="#F49C55"/>
<path d="M33.3623 25.542H28.9707V10H33.3623V25.542ZM29.327 25.1309H33.0061V10.4111H29.327V25.1309Z" fill="#F49C55"/>
</svg>

<?xml version="1.0" encoding="UTF-8"?>
<svg id="_Слой_1" data-name="Слой_1" xmlns="http://www.w3.org/2000/svg" version="1.1" viewBox="0 0 62 62">
  <!-- Generator: Adobe Illustrator 30.2.1, SVG Export Plug-In . SVG Version: 2.1.1 Build 1)  -->
  <defs>
    <style>
      .st0 {
        fill: #f49c55;
      }
    </style>
  </defs>
  <path class="st0" d="M46.1,16.1l-.5.5-3.1,3.1c2.9,3,4.3,6.7,4.3,11s-1.5,8.1-4.5,11.1c-3,3-6.7,4.5-11.1,4.5s-8.1-1.5-11.1-4.5c-3-3-4.5-6.7-4.5-11.1s1.5-8.2,4.5-11.2h0c-1.2-1.2-2.5-2.4-3.7-3.7h0c-4,4.1-6.1,9-6.1,14.9s2,10.7,6.1,14.8c4,4.1,9,6.1,14.8,6.1s10.8-2,14.9-6.1c4.1-4.1,6.1-9,6.1-14.8,0-5.8-2.1-10.7-6-14.7Z"/>
  <path class="st0" d="M31.1,52c-5.9,0-11-2.1-15-6.2-4.1-4.1-6.1-9.2-6.1-15s2.1-10.9,6.1-15l.2-.2.2.2c1.2,1.2,2.5,2.4,3.7,3.6l.2.2-.2.2c-2.9,3-4.4,6.7-4.4,11s1.5,8,4.4,10.9c2.9,2.9,6.6,4.4,10.9,4.4s8-1.5,10.9-4.4c2.9-2.9,4.4-6.6,4.4-10.9s-1.4-7.9-4.3-10.9l-.2-.2,4.1-4.1.2.2c4,4.1,6.1,9.1,6.1,14.9s-2.1,10.9-6.1,15c-4.1,4.1-9.1,6.2-15,6.2ZM16.3,16.4c-3.9,3.9-5.8,8.8-5.8,14.5s2,10.6,6,14.6c4,4,8.9,6,14.6,6s10.7-2,14.7-6c4-4,6-8.9,6-14.6s-1.9-10.4-5.7-14.3l-3.3,3.3c2.8,3,4.2,6.7,4.2,11s-1.5,8.3-4.6,11.3c-3,3-6.8,4.6-11.3,4.6s-8.3-1.5-11.3-4.6c-3-3-4.6-6.9-4.6-11.3s1.5-8.2,4.4-11.2c-1.1-1.1-2.3-2.2-3.4-3.3Z"/>
  <path class="st0" d="M33.2,10.2h-4v15.1h4v-15.1Z"/>
  <path class="st0" d="M33.4,25.5h-4.4v-15.5h4.4v15.5ZM29.3,25.1h3.7v-14.7h-3.7v14.7Z"/>
</svg>
